X:679
T:
N:»Largeasse» (med gotländskt uttal aʃáss), dans efter kadriljen,
S:uppt. efter »Florsen» i Burs.
R:kadrilj
O:Gotland, Burs
M:2/4
L:1/16
K:G
D2|D2G2G2G2|ABAG F2D2|G2GA B2B2|cdcB A3B/c/|d2ef Lg3B|cBcd Le4|d2Bd
dcAF|G2G2G2:|B2|cdcB A2A2|BcBA G2G2|F2A2- AGFE|D2GB D3B|cdcB A2A2|BcBA
G2G2|F2A2- AGFE|D2d2- dcBA|G2G2G2G2|ABAG F2D2|G2GA B2B2|cdcB A4|{B2}d2ef
Lg4|{B2}cBcd Le4|d2Bd dcAF|F2G2 G2|:G2|L[G,DBg]4 agfe|e2d2 dcBA|G2 g4
fg|a2ba gfed|L[G,DBg]4 agfe|e2d2 dcBA|G2Bd dcAF|G2B2 G2:|

